!! 00000] TT[WS
!!!OTL: Guan deng
!!!ARE: Asia, China,ÿShanxi Zuoquan
!! Ethnic Group: Han
!! WI, 175
!!!SCT: J0208
!!!YEM: Copyright 1995, estate of Helmut Schaffrath.
**kern
*ICvox
*Ivox
*M2/4
*k[]
*C:
{4c
8c
8A
=1
4G
4G
=2
8c
8d
8c
8A
=3
2G}
=4
{8e
4g
8a
=5
4g
8e
8e
=6
8d
8B
8A
8G
=7
4.c
8e
=8
8d
8c
8A
8E
=9
2G}
==
!!!AGN: Xiaodiao. Fengsuge, Qingge
!!!ONB: ESAC (Essen Associative Code) Database: CHINA
!!!AMT: simple duple
!!!AIN: vox
!!!EED: Helmut Schaffrath
!!!EEV: 1.0
*-
